X: 30
T:Cropie's Strathspey
M:4/4
L:1/8
S:2: ABAB
R:Strathspey
K:G
G|"G"D<GG>E "D"F>GA>F|"G"G>Bd<B "C"e3f|"G"g>be>g d>gB<G|"Am"E<AA>G "D"G>
FED|
!
"G"D<GG>E "D"F>GA>F|"G"G>Bd<B "C"e3f|"G"g>be>g d>gB<G|"Am"E>A "D"G/2F/2E
/2D/2 "G"G3||!
d|"C"e>fg<e "Am"a>ge>f|"C"e/2f/2g f>e "G"d3B|"C"c>de<c "G"B>cd<B|"Am"E<A
A>G "D"G>FED|!
"G"D<GG>E "D"F>GA>F|"G"G>Bd>B "C"e3f|"G"g<be<g d<gB<G|"Am"E>A "D"G/2F/2E
/2D/2 "G"G3||
% <A name="D1X031"></A>

